packages/core/src/svgs/tokens/branded/AEGIS.svg

<svg width="24" height="24" viewBox="0 0 24 24" fill="none" xmlns="http://www.w3.org/2000/svg">
<path d="M12 21.4117C14.4961 21.4117 16.8901 20.4202 18.6551 18.6551C20.4202 16.89 21.4117 14.4961 21.4117 12C21.4117 9.50377 20.4202 7.10991 18.6551 5.34487C16.8901 3.57982 14.4961 2.58823 12 2.58823C9.5039 2.58823 7.10991 3.57982 5.34487 5.34487C3.57983 7.10991 2.58823 9.50377 2.58823 12C2.58823 14.4961 3.57983 16.89 5.34487 18.6551C7.10991 20.4202 9.5039 21.4117 12 21.4117ZM12 22C14.6522 22 17.1957 20.9464 19.0711 19.071C20.9464 17.1957 22 14.6522 22 12C22 9.34785 20.9464 6.80429 19.0711 4.92892C17.1957 3.05357 14.6522 2 12 2C9.34784 2 6.80429 3.05357 4.92892 4.92892C3.05357 6.80429 2 9.34785 2 12C2 14.6522 3.05357 17.1957 4.92892 19.071C6.80429 20.9464 9.34784 22 12 22Z" fill="#C87513"/>
<path d="M11.9999 18.4708C13.716 18.4708 15.3618 17.789 16.5753 16.5756C17.7888 15.3621 18.4705 13.7163 18.4705 12.0002C18.4705 10.2841 17.7888 8.63821 16.5753 7.42474C15.3618 6.21127 13.716 5.52954 11.9999 5.52954C10.2838 5.52954 8.63797 6.21127 7.4245 7.42474C6.21103 8.63821 5.52931 10.2841 5.52931 12.0002C5.52931 13.7163 6.21103 15.3621 7.4245 16.5756C8.63797 17.789 10.2838 18.4708 11.9999 18.4708ZM11.9999 21.4119C14.496 21.4119 16.89 20.4203 18.655 18.6552C20.4201 16.8902 21.4116 14.4963 21.4116 12.0002C21.4116 9.50392 20.4201 7.11006 18.655 5.34502C16.89 3.57996 14.496 2.58838 11.9999 2.58838C9.5038 2.58838 7.10981 3.57996 5.34477 5.34502C3.57973 7.11006 2.58813 9.50392 2.58813 12.0002C2.58813 14.4963 3.57973 16.8902 5.34477 18.6552C7.10981 20.4203 9.5038 21.4119 11.9999 21.4119Z" fill="url(#paint0_linear_364_3481)"/>
<path d="M18.5881 12.0002C18.5881 13.7474 17.894 15.4232 16.6585 16.6587C15.4229 17.8943 13.7472 18.5884 11.9999 18.5884C10.2525 18.5884 8.57683 17.8943 7.34131 16.6587C6.10577 15.4232 5.41166 13.7474 5.41166 12.0002C5.41166 10.2528 6.10577 8.57708 7.34131 7.34155C8.57683 6.10601 10.2525 5.4119 11.9999 5.4119C13.7472 5.4119 15.4229 6.10601 16.6585 7.34155C17.894 8.57708 18.5881 10.2528 18.5881 12.0002ZM11.9999 21.2942C13.2204 21.2942 14.4289 21.0538 15.5566 20.5868C16.6841 20.1198 17.7088 19.4351 18.5718 18.5721C19.4349 17.709 20.1195 16.6844 20.5866 15.5569C21.0537 14.4292 21.294 13.2206 21.294 12.0002C21.294 10.7796 21.0537 9.57104 20.5866 8.44344C20.1195 7.31582 19.4349 6.29124 18.5718 5.42821C17.7088 4.56516 16.6841 3.88056 15.5566 3.4135C14.4289 2.94642 13.2204 2.70602 11.9999 2.70602C9.53496 2.70602 7.17095 3.68522 5.42796 5.42821C3.68498 7.17119 2.70578 9.53522 2.70578 12.0002C2.70578 14.4651 3.68498 16.8291 5.42796 18.5721C7.17095 20.3151 9.53496 21.2942 11.9999 21.2942ZM18.4705 12.0002C18.4705 13.7163 17.7888 15.3621 16.5753 16.5756C15.3618 17.789 13.716 18.4708 11.9999 18.4708C10.2838 18.4708 8.63797 17.789 7.4245 16.5756C6.21103 15.3621 5.52931 13.7163 5.52931 12.0002C5.52931 10.2841 6.21103 8.63821 7.4245 7.42474C8.63797 6.21127 10.2838 5.52954 11.9999 5.52954C13.716 5.52954 15.3618 6.21127 16.5753 7.42474C17.7888 8.63821 18.4705 10.2841 18.4705 12.0002ZM21.4116 12.0002C21.4116 14.4963 20.4201 16.8902 18.655 18.6552C16.89 20.4203 14.496 21.4119 11.9999 21.4119C9.5038 21.4119 7.10981 20.4203 5.34477 18.6552C3.57973 16.8902 2.58813 14.4963 2.58813 12.0002C2.58813 9.50392 3.57973 7.11006 5.34477 5.34502C7.10981 3.57996 9.5038 2.58838 11.9999 2.58838C14.496 2.58838 16.89 3.57996 18.655 5.34502C20.4201 7.11006 21.4116 9.50392 21.4116 12.0002Z" fill="black"/>
<path d="M12.0001 18.4706C15.5737 18.4706 18.4707 15.5736 18.4707 12C18.4707 8.4264 15.5737 5.52942 12.0001 5.52942C8.42651 5.52942 5.52954 8.4264 5.52954 12C5.52954 15.5736 8.42651 18.4706 12.0001 18.4706Z" fill="#E68500"/>
<path d="M18.6477 14.4175C18.8242 13.9352 18.9418 13.4293 19.0124 12.9175L20.0124 13.041C19.9535 13.5294 19.8418 14.0058 19.6948 14.4764L20.1537 14.6234L20.2301 14.3705L20.3007 14.1116L20.3595 13.8588L20.3889 13.7293L20.4124 13.594L20.4595 13.3352L20.4947 13.0764L20.5124 12.9411L20.5184 12.8822L20.5243 12.8117L20.5477 12.5469L19.0536 12.4529L19.0654 12.2293V11.9999H19.3301V12.2352L20.8183 12.2764C20.7968 13.1997 20.6261 14.1135 20.3125 14.9822L19.3595 14.6352C19.5183 14.194 19.6418 13.7293 19.7124 13.2646L19.236 13.1882C19.1595 13.6352 19.0477 14.0822 18.8889 14.5117L18.6477 14.4175Z" fill="black"/>
<path d="M17.4119 16.541C17.7531 16.147 18.0354 15.7175 18.2766 15.2588L19.1706 15.7175C18.9472 16.1529 18.6824 16.5646 18.3766 16.9528L18.7648 17.2469C19.1977 16.6902 19.5594 16.0816 19.8413 15.4351L18.4765 14.8352L18.5236 14.7351L18.6472 14.4175L18.8942 14.5058L18.806 14.7176L20.1943 15.2763L20.1354 15.4351L20.059 15.594L19.9884 15.7529L19.953 15.8293L19.9118 15.9058L19.7589 16.2116L19.5824 16.5116C19.3472 16.9058 19.0825 17.2822 18.7884 17.6411L18.0119 16.994C18.3177 16.6293 18.5884 16.2352 18.8178 15.8234L18.3942 15.5882C18.1707 15.9822 17.9119 16.3646 17.6177 16.7116L17.4178 16.541H17.4119Z" fill="black"/>
<path d="M15.5295 18.1175C15.9825 17.8646 16.4001 17.5588 16.7824 17.2057L17.4648 17.9469C17.1061 18.2763 16.7178 18.5764 16.3001 18.8352L16.559 19.247L16.7824 19.1058L17.0001 18.9529C17.1413 18.8528 17.2765 18.7411 17.4178 18.6293C17.6883 18.4058 17.9471 18.1705 18.1942 17.9116L17.1118 16.8763L17.2649 16.7116L17.4119 16.541L17.6177 16.7116L17.4648 16.8881L18.5884 17.8823C17.9683 18.5628 17.2507 19.1476 16.4589 19.6176L15.9472 18.747C16.359 18.5117 16.7412 18.2352 17.1001 17.9234L16.7824 17.5588C16.4354 17.8529 16.0648 18.1234 15.6649 18.347L15.5413 18.1234L15.5295 18.1175Z" fill="black"/>
<path d="M13.2299 18.9587C13.7356 18.8705 14.2357 18.7233 14.7122 18.5293L15.1063 19.4587C14.6533 19.6469 14.1828 19.7939 13.7063 19.894L13.8063 20.3704C13.9827 20.3292 14.1474 20.2939 14.318 20.2411L14.571 20.1704L14.8239 20.0822L14.9475 20.041L15.071 19.994L15.318 19.894L15.5592 19.7882C15.6416 19.7527 15.7239 19.7175 15.8004 19.6704L15.1356 18.3352L15.3358 18.2351L15.5357 18.1175L15.6652 18.3527L15.465 18.4587L16.1709 19.7764C15.3583 20.2106 14.4833 20.5162 13.5768 20.6822L13.4005 19.6881C13.8651 19.6057 14.3239 19.4763 14.765 19.3116L14.5887 18.8587C14.1651 19.0175 13.724 19.141 13.2769 19.2175L13.2299 18.9587ZM10.7709 18.9587C11.2828 19.0527 11.8003 19.0823 12.3181 19.0586L12.3651 20.0705C11.8769 20.094 11.3828 20.0705 10.8945 19.9998L10.8357 20.4823L11.0946 20.5175L11.3592 20.5351L11.4945 20.5469L11.624 20.5528L11.8886 20.5587H12.418L12.9475 20.5116L12.7828 19.0234C12.9298 19.0058 13.0827 18.994 13.2299 18.9646L13.2769 19.2175L13.0474 19.2586L13.2592 20.7293C12.3474 20.8645 11.424 20.8528 10.5122 20.6998L10.6886 19.6999C11.1533 19.7823 11.6299 19.8175 12.1004 19.8175L12.0886 19.3293C11.6356 19.3293 11.1769 19.2998 10.7298 19.2175L10.7709 18.9587Z" fill="black"/>
<path d="M8.47108 18.1175C8.91226 18.3823 9.38872 18.5881 9.88284 18.7469L9.5887 19.7116C9.11814 19.5646 8.6652 19.3705 8.22991 19.141L8.00049 19.5705L8.23578 19.6881C8.31813 19.7352 8.40049 19.7645 8.47697 19.8057C8.55932 19.841 8.63578 19.8822 8.71814 19.9117L8.9652 20.0057L9.21814 20.0999L9.46517 20.1822L9.72404 20.2528L9.84757 20.288L9.977 20.3235L10.3299 18.8705L10.5476 18.9176L10.771 18.9587L10.7241 19.2175L10.5005 19.1763L10.2004 20.6411C9.2958 20.4526 8.42633 20.1232 7.62402 19.6646L8.1299 18.7881C8.54167 19.0234 8.97108 19.2234 9.41809 19.3764L9.5769 18.9176C9.14755 18.7704 8.7299 18.5763 8.33579 18.347L8.4652 18.1234L8.47108 18.1175Z" fill="black"/>
<path d="M6.58889 16.541C6.9183 16.9411 7.29477 17.2999 7.70654 17.6116L7.09477 18.4176C6.70654 18.1234 6.34183 17.7881 6.01242 17.4175L5.65359 17.7469C6.13007 18.2704 6.66536 18.7352 7.2536 19.1294L8.083 17.8823C8.21242 17.9646 8.33595 18.0529 8.46537 18.1175L8.33595 18.3528L8.14183 18.2352L7.3536 19.5C6.56795 19.0171 5.86491 18.4114 5.27124 17.7058L6.03596 17.0587C6.34772 17.4116 6.683 17.7469 7.05359 18.047L7.35948 17.6764C7.00654 17.3823 6.67713 17.0587 6.383 16.7116L6.58301 16.541H6.58889Z" fill="black"/>
<path d="M5.35328 14.4175C5.52977 14.9058 5.76505 15.3705 6.04152 15.8057L5.19447 16.3528C4.92965 15.939 4.70322 15.502 4.51799 15.047L4.07094 15.2293L4.11799 15.3528L4.17682 15.4704L4.2827 15.7175L4.40035 15.9529L4.52975 16.1881L4.66505 16.4117C4.70622 16.4882 4.75918 16.5646 4.80623 16.6352C4.89447 16.7881 5.00035 16.9293 5.10035 17.0763L6.30623 16.1881L6.44152 16.3646L6.58858 16.541L6.38269 16.7116L6.24153 16.5352L5.06505 17.4587C4.4955 16.7336 4.04297 15.9238 3.72388 15.0587L4.66505 14.7058C4.82975 15.1528 5.03563 15.5882 5.28269 15.994L5.69447 15.7411C5.46042 15.3485 5.26349 14.935 5.10623 14.5058L5.35328 14.4175Z" fill="black"/>
<path d="M4.92969 12C4.92969 12.5176 4.98852 13.0353 5.10029 13.5411L4.11793 13.7588C4.01205 13.2881 3.94735 12.794 3.9297 12.3058L3.44734 12.3235C3.46499 13.0294 3.58852 13.7353 3.78264 14.4117L5.21793 13.9881L5.24734 14.1L5.35322 14.4176L5.11205 14.5058L5.03557 14.2941L3.61794 14.7588L3.55911 14.5941L3.51793 14.4294L3.42969 14.0941C3.40029 13.9823 3.37088 13.8705 3.35323 13.7588L3.2944 13.4175C3.21793 12.9646 3.17676 12.5058 3.17676 12.0471L4.18852 12.0412C4.18852 12.5117 4.23558 12.9823 4.32381 13.4528L4.7944 13.3588C4.71205 12.9118 4.67087 12.4588 4.67087 12H4.92969ZM5.35322 9.58223C5.17675 10.0647 5.05911 10.5705 4.9944 11.0823L3.9944 10.9647C4.05323 10.4705 4.1591 9.994 4.31205 9.52349L3.84734 9.37635L3.77088 9.62931L3.70029 9.88818L3.61205 10.2765L3.54146 10.6646L3.50617 10.9294L3.48852 11.0588L3.47676 11.1881L3.4591 11.4529L4.94734 11.547L4.93558 11.7705V12H4.67087V11.7646L3.18263 11.7234C3.20658 10.8017 3.3794 9.88996 3.6944 9.02347L4.64146 9.36469C4.48264 9.81173 4.36499 10.2706 4.28852 10.7411L4.76499 10.8118C4.84147 10.3646 4.95323 9.91755 5.11205 9.49412L5.35322 9.58223ZM6.58851 7.45877C6.25323 7.85288 5.96499 8.28229 5.72381 8.74111L4.82969 8.28229C5.05322 7.847 5.31793 7.43524 5.62382 7.047L5.24145 6.75288C4.80656 7.30932 4.44296 7.91797 4.1591 8.56464L5.52381 9.16465L5.47675 9.26463L5.35322 9.58223L5.11205 9.49412L5.1944 9.28233L3.80617 8.72347L3.86499 8.56464L3.94146 8.40582L4.01205 8.24701L4.04734 8.17053L4.08851 8.09406L4.24146 7.78818L4.41793 7.48818C4.65322 7.09405 4.91793 6.71759 5.21205 6.35876L5.98852 7.00582C5.68263 7.37052 5.41205 7.76465 5.18264 8.17642L5.60617 8.4117C5.8297 8.01759 6.08852 7.63523 6.38263 7.28817L6.58264 7.45877H6.58851Z" fill="black"/>
<path d="M8.47093 5.88227C8.01799 6.1352 7.60035 6.44109 7.21798 6.79402L6.53564 6.05285C6.89446 5.72343 7.2827 5.42344 7.70034 5.16462L7.44152 4.75285L7.21798 4.89403L7.00623 5.04697C6.85917 5.14696 6.72388 5.26462 6.5827 5.3705C6.31212 5.59403 6.05328 5.8352 5.80622 6.08815L6.88857 7.12343L6.73564 7.28814L6.58858 7.45873L6.38269 7.28814L6.53564 7.11167L5.41211 6.11756C6.03223 5.43704 6.74984 4.85224 7.54152 4.38226L8.05329 5.25286C7.64153 5.48815 7.25916 5.76461 6.89446 6.07639L7.21798 6.44109C7.55917 6.14696 7.93563 5.88227 8.32975 5.65284L8.45917 5.87638L8.47093 5.88227Z" fill="black"/>
<path d="M10.7709 5.04109C10.2652 5.12933 9.76514 5.27638 9.28859 5.4705L8.89453 4.54108C9.34747 4.35285 9.81812 4.2058 10.3004 4.10579L10.1945 3.62933C10.024 3.6705 9.85339 3.70579 9.68279 3.75873L9.42983 3.82932L9.17689 3.91756L9.05336 3.95874L8.92983 4.00579L8.68278 4.10579L8.44159 4.21167C8.35924 4.24697 8.27689 4.28226 8.20042 4.32933L8.86512 5.66462L8.66513 5.76461L8.46513 5.88227L8.33571 5.64697L8.53571 5.54109L7.82983 4.22345C8.64246 3.7891 9.51753 3.48351 10.424 3.31757L10.6005 4.31167C10.1357 4.39403 9.67688 4.52345 9.23571 4.68815L9.41212 5.14109C9.83569 4.98226 10.2768 4.85873 10.7298 4.78227L10.7709 5.04109Z" fill="black"/>
<path d="M13.2297 5.04109C12.7238 4.94698 12.2003 4.91756 11.6826 4.94109L11.6355 3.92933C12.1239 3.9058 12.618 3.92933 13.1062 3.99992L13.165 3.51757L12.9062 3.48228L12.6415 3.46463L12.5061 3.45286L12.3767 3.44698L12.1121 3.4411H11.5827L11.0533 3.48815L11.218 4.97639C11.0709 4.99403 10.9239 5.00581 10.7708 5.03521L10.7239 4.78227L10.9532 4.7411L10.7414 3.27051C11.6532 3.13522 12.5768 3.14698 13.4885 3.29992L13.318 4.29992C12.8473 4.21757 12.3767 4.18228 11.9062 4.18228V4.67051C12.365 4.67051 12.8239 4.69992 13.2709 4.78227L13.2297 5.04109Z" fill="black"/>
<path d="M15.5302 5.88223C15.0891 5.61752 14.6125 5.41164 14.1184 5.25282L14.4125 4.28811C14.8832 4.43517 15.3419 4.62929 15.7714 4.85869L16.0007 4.42929L15.7655 4.31164C15.6831 4.26459 15.6008 4.23517 15.5243 4.194L15.2831 4.0881L15.0361 3.99399L14.7831 3.89987L14.5361 3.81752L14.2772 3.74693L14.1537 3.71164L14.0242 3.67635L13.6714 5.12929L13.4537 5.08223L13.2302 5.04105L13.2773 4.78223L13.5008 4.8234L13.8008 3.3587C14.7008 3.55282 15.5773 3.87635 16.3772 4.33518L15.8714 5.21164C15.4597 4.97635 15.0302 4.77634 14.5772 4.6234L14.4243 5.08223C14.8537 5.22928 15.2713 5.4234 15.6655 5.65281L15.5361 5.87634L15.5302 5.88223Z" fill="black"/>
<path d="M17.4118 7.45877C17.0787 7.06297 16.704 6.70406 16.2941 6.38818L16.9059 5.5823C17.2942 5.87641 17.6589 6.21759 17.9883 6.5823L18.3471 6.25289C17.8715 5.7293 17.3343 5.26515 16.7471 4.87053L15.9236 6.1176C15.7884 6.03524 15.6648 5.95289 15.5354 5.8823L15.6648 5.647L15.8589 5.76465L16.6472 4.49994C17.4328 4.98272 18.1358 5.58847 18.7295 6.29407L17.9648 6.94112C17.653 6.58817 17.3177 6.25289 16.9471 5.95289L16.6413 6.32935C16.9941 6.61759 17.3236 6.94113 17.6177 7.28817L17.4177 7.45877H17.4118Z" fill="black"/>
<path d="M18.6476 9.58219C18.4711 9.09402 18.2358 8.62931 17.9594 8.19401L18.8064 7.64695C19.0712 8.05872 19.2946 8.49989 19.4829 8.95284L19.93 8.77048L19.8829 8.64695L19.8242 8.52931L19.7182 8.28225L19.5417 7.92931L19.4711 7.81166L19.3417 7.58812L19.2006 7.36461C19.1064 7.21166 19.0006 7.07048 18.9006 6.92343L17.6946 7.81166L17.5594 7.63519L17.4182 7.45872L17.6182 7.28813L17.7594 7.4646L18.9358 6.54108C19.5075 7.2658 19.9621 8.07561 20.2829 8.94107L19.3358 9.29395C19.1711 8.84696 18.9652 8.41165 18.7241 8.00578L18.3064 8.25872C18.5418 8.65284 18.7359 9.0646 18.8947 9.49407L18.6476 9.58219Z" fill="black"/>
<path d="M19.0713 11.9999C19.0713 11.4822 19.0124 10.9646 18.9007 10.4587L19.883 10.241C19.989 10.7116 20.0536 11.2057 20.0713 11.6939L20.5536 11.6764C20.5359 10.9705 20.4124 10.2646 20.2183 9.58805L18.783 10.0116L18.7537 9.89989L18.6477 9.58215L18.8889 9.49403L18.9653 9.70568L20.383 9.24103L20.4419 9.40577L20.4831 9.57048L20.5712 9.90579C20.6007 10.0175 20.6301 10.1292 20.6478 10.241L20.7065 10.5822C20.783 11.0351 20.8242 11.494 20.8242 11.9528L19.8184 11.9587C19.8184 11.4881 19.7654 11.0176 19.683 10.5469L19.2066 10.6411C19.289 11.0881 19.3301 11.541 19.3301 11.9999H19.0713Z" fill="black"/>
<path d="M16.7061 15C16.7061 7.24705 10.4298 7.35292 7.29443 8.37057L9.12385 10.1529C12.2591 8.92941 14.612 10.1529 15.4003 10.9176C13.3062 9.49411 10.518 9.98823 9.38854 10.4118L10.1709 11.1764C14.9826 9.34121 16.5298 12.9588 16.7061 15Z" fill="black"/>
<path d="M11.4123 17.2941V13.9823L12.524 13.4704V12.7058L10.824 13.4704V15.7647L10.4299 14.9999L10.5299 11.9999L10.4299 11.4293C10.9593 11.1764 12.0005 10.9234 12.7829 10.9234C14.4593 10.9234 15.4005 12.2763 15.6652 12.9588C14.4063 12.9588 14.0946 14.3176 14.0946 14.9999L11.4123 17.2941Z" fill="black"/>
<defs>
<linearGradient id="paint0_linear_364_3481" x1="15.4373" y1="2.93764" x2="8.5624" y2="21.0626" gradientUnits="userSpaceOnUse">
<stop stop-color="#9E7F42"/>
<stop offset="1" stop-color="#C8AF6C"/>
</linearGradient>
</defs>
</svg>

<svg xmlns="http://www.w3.org/2000/svg" width="24" height="24" fill="none" viewBox="0 0 24 24">
    <path fill="#C87513" d="M12 21.412a9.411 9.411 0 1 0 0-18.823 9.411 9.411 0 0 0 0 18.823M12 22a10 10 0 1 0 0-20 10 10 0 0 0 0 20"/>
    <path fill="url(#AEGIS__a)" d="M12 18.47a6.471 6.471 0 1 0 0-12.94 6.471 6.471 0 0 0 0 12.942m0 2.942a9.412 9.412 0 1 0 0-18.823 9.412 9.412 0 0 0 0 18.823"/>
    <path fill="#000" d="M18.588 12a6.588 6.588 0 1 1-13.176 0 6.588 6.588 0 0 1 13.176 0M12 21.294a9.296 9.296 0 0 0 8.587-12.85A9.294 9.294 0 1 0 12 21.293M18.47 12a6.47 6.47 0 1 1-12.94 0 6.47 6.47 0 0 1 12.94 0m2.942 0a9.411 9.411 0 1 1-18.823 0 9.411 9.411 0 0 1 18.823 0"/>
    <path fill="#E68500" d="M12 18.47a6.47 6.47 0 1 0 0-12.94 6.47 6.47 0 0 0 0 12.94"/>
    <path fill="#000" d="M18.648 14.418a7.3 7.3 0 0 0 .364-1.5l1 .123c-.059.488-.17.965-.317 1.435l.459.147.076-.252.07-.26.06-.252.029-.13.023-.135.047-.259.036-.259.017-.135.006-.059.006-.07.024-.265-1.494-.094.011-.224V12h.265v.236l1.488.041a8.6 8.6 0 0 1-.506 2.706l-.953-.347a7.2 7.2 0 0 0 .353-1.37l-.476-.077a7.4 7.4 0 0 1-.347 1.324z"/>
    <path fill="#000" d="M17.412 16.541c.341-.394.623-.824.865-1.282l.894.458a7.6 7.6 0 0 1-.794 1.236l.388.294a8.5 8.5 0 0 0 1.076-1.812l-1.364-.6.047-.1.123-.317.247.088-.088.212 1.388.558-.059.16-.076.158-.07.159-.036.076-.041.077-.153.306-.177.3q-.353.59-.794 1.13l-.776-.648c.306-.365.576-.759.806-1.17l-.424-.236a7.3 7.3 0 0 1-.776 1.124l-.2-.171z"/>
    <path fill="#000" d="M15.53 18.118a6.6 6.6 0 0 0 1.252-.912l.683.74c-.359.33-.747.63-1.165.89l.259.411.223-.141.218-.153c.141-.1.276-.212.418-.324.27-.223.53-.459.776-.717l-1.082-1.036.153-.164.147-.171.206.17-.153.177 1.123.994a9.3 9.3 0 0 1-2.13 1.736l-.51-.871a7.2 7.2 0 0 0 1.152-.824l-.318-.364a7 7 0 0 1-1.117.788l-.124-.224z"/>
    <path fill="#000" d="M13.23 18.959a7.3 7.3 0 0 0 1.482-.43l.394.93a8 8 0 0 1-1.4.435l.1.476c.177-.04.341-.076.512-.129l.253-.07.253-.089.123-.041.124-.047.247-.1.241-.106a1.6 1.6 0 0 0 .241-.118l-.664-1.335.2-.1.2-.117.13.235-.201.106.706 1.317a8.9 8.9 0 0 1-2.594.906l-.177-.994a8 8 0 0 0 1.365-.376l-.176-.453a7 7 0 0 1-1.312.358zm-2.46 0c.513.094 1.03.123 1.548.1l.047 1.011c-.488.024-.982 0-1.47-.07l-.06.482.26.035.264.018.136.012.129.006.265.006h.529l.53-.047-.165-1.489c.147-.017.3-.029.447-.058l.047.253-.23.04.212 1.471a8.8 8.8 0 0 1-2.747-.03l.177-1c.464.083.94.118 1.411.118l-.011-.488c-.453 0-.912-.03-1.36-.111z"/>
    <path fill="#000" d="M8.471 18.118c.441.264.918.47 1.412.629l-.294.965a8 8 0 0 1-1.36-.571l-.229.43.236.117c.082.047.164.077.241.118.082.035.159.076.241.106l.247.094.253.094.247.082.259.07.124.036.129.035.353-1.453.218.048.223.04-.047.26-.223-.042-.3 1.465a8.8 8.8 0 0 1-2.577-.976l.506-.877c.412.235.841.435 1.288.588l.159-.458a7 7 0 0 1-1.241-.571l.13-.224z"/>
    <path fill="#000" d="M6.589 16.541c.33.4.706.759 1.118 1.07l-.612.807a7.6 7.6 0 0 1-1.083-1l-.358.329a8.8 8.8 0 0 0 1.6 1.382l.829-1.247c.13.083.253.17.382.235l-.129.236-.194-.118-.788 1.265a8.6 8.6 0 0 1-2.083-1.794l.765-.647a8.5 8.5 0 0 0 1.018.988l.305-.37a8 8 0 0 1-.976-.965l.2-.171z"/>
    <path fill="#000" d="M5.353 14.418c.177.488.412.953.689 1.388l-.848.547a8 8 0 0 1-.676-1.306l-.447.182.047.124.059.117.106.247.117.236.13.235.135.224c.041.076.094.153.141.223.088.153.194.294.294.441l1.206-.888.136.177.147.176-.206.17-.141-.176-1.177.924a8.8 8.8 0 0 1-1.341-2.4l.941-.353c.165.447.37.882.618 1.288l.411-.253a7.4 7.4 0 0 1-.588-1.235z"/>
    <path fill="#000" d="M4.93 12c0 .518.059 1.035.17 1.541l-.982.218a8 8 0 0 1-.188-1.453l-.483.018a8.4 8.4 0 0 0 .336 2.088l1.435-.424.03.112.105.318-.24.088-.077-.212-1.418.465-.059-.165-.041-.165-.088-.335c-.03-.112-.06-.223-.077-.335l-.059-.341a8 8 0 0 1-.117-1.37l1.012-.007q.001.705.135 1.412l.47-.094A7.5 7.5 0 0 1 4.671 12zm.423-2.418a7 7 0 0 0-.359 1.5l-1-.117a7.6 7.6 0 0 1 .318-1.442l-.465-.147-.076.253-.07.26-.089.388-.07.388-.036.264-.017.13-.012.13-.018.264 1.488.094-.011.223V12H4.67v-.235l-1.488-.042a8.6 8.6 0 0 1 .511-2.7l.947.342a8 8 0 0 0-.352 1.376l.476.07a7 7 0 0 1 .347-1.317zM6.59 7.46a7 7 0 0 0-.865 1.282l-.894-.459q.335-.653.794-1.235l-.383-.294A8.5 8.5 0 0 0 4.16 8.565l1.365.6-.047.1-.124.317-.24-.088.081-.212-1.388-.559.059-.158.076-.16.071-.158.035-.076.042-.077.152-.306.177-.3q.353-.59.794-1.13l.777.648a7.5 7.5 0 0 0-.806 1.17l.423.236c.224-.394.483-.777.777-1.124l.2.17zm1.88-1.578a6.6 6.6 0 0 0-1.252.912l-.682-.741c.358-.33.747-.63 1.164-.888l-.258-.412-.224.141-.212.153c-.147.1-.282.218-.423.324q-.406.336-.777.717L6.89 7.123l-.153.165-.147.17-.206-.17.153-.176-1.124-.994a9.3 9.3 0 0 1 2.13-1.736l.511.87a7.5 7.5 0 0 0-1.159.824l.324.365a7.4 7.4 0 0 1 1.112-.788l.13.223z"/>
    <path fill="#000" d="M10.77 5.041a7.3 7.3 0 0 0-1.481.43l-.394-.93a8 8 0 0 1 1.405-.435l-.106-.477c-.17.042-.34.077-.511.13l-.253.07-.253.089-.124.04-.123.048-.247.1-.241.106c-.083.035-.165.07-.242.117l.665 1.336-.2.1-.2.117-.13-.235.2-.106-.705-1.318a8.9 8.9 0 0 1 2.594-.905l.177.994a8 8 0 0 0-1.365.376l.176.453a7 7 0 0 1 1.318-.359z"/>
    <path fill="#000" d="M13.23 5.041a6.8 6.8 0 0 0-1.547-.1l-.047-1.012c.488-.023.982 0 1.47.07l.059-.481-.259-.036-.264-.017-.136-.012-.13-.006-.264-.006h-.53l-.529.047.165 1.488c-.147.018-.294.03-.447.06l-.047-.254.23-.04-.213-1.471a8.8 8.8 0 0 1 2.748.029l-.171 1a8 8 0 0 0-1.412-.118v.489c.459 0 .918.029 1.365.111z"/>
    <path fill="#000" d="M15.53 5.882a6.8 6.8 0 0 0-1.412-.63l.294-.964c.471.147.93.341 1.36.57L16 4.43l-.236-.117c-.082-.047-.164-.077-.24-.118l-.242-.106-.247-.094-.253-.094-.247-.082-.259-.071-.123-.035-.13-.036-.353 1.453-.217-.047-.224-.04.047-.26.224.041.3-1.464c.9.194 1.776.517 2.576.976l-.506.877a7.3 7.3 0 0 0-1.294-.589l-.153.46c.43.146.847.34 1.242.57l-.13.223z"/>
    <path fill="#000" d="M17.412 7.459a7.2 7.2 0 0 0-1.118-1.07l.612-.807a8 8 0 0 1 1.082 1l.36-.33a8.8 8.8 0 0 0-1.6-1.381l-.824 1.247c-.136-.083-.26-.165-.389-.236l.13-.235.194.118.788-1.265a8.6 8.6 0 0 1 2.083 1.794l-.765.647a8.5 8.5 0 0 0-1.018-.988l-.306.376c.353.289.683.612.977.96l-.2.17zm1.236 2.123a7 7 0 0 0-.689-1.388l.847-.547c.265.412.489.853.677 1.306l.447-.183-.047-.123-.059-.118-.106-.247-.176-.353-.07-.117-.13-.224-.141-.223c-.095-.153-.2-.295-.3-.442l-1.206.889-.136-.177-.14-.176.2-.17.14.176 1.177-.924a8.8 8.8 0 0 1 1.347 2.4l-.947.353a8 8 0 0 0-.612-1.288l-.418.253q.352.591.589 1.235z"/>
    <path fill="#000" d="M19.071 12c0-.518-.059-1.035-.17-1.541l.982-.218c.106.47.17.965.188 1.453l.483-.018a8.4 8.4 0 0 0-.336-2.088l-1.435.424-.03-.112-.105-.318.24-.088.077.212 1.418-.465.059.165.041.164.088.336c.03.111.06.223.077.335l.058.341q.117.681.118 1.37l-1.006.007c0-.47-.053-.941-.135-1.412l-.476.094q.123.67.123 1.359zm-2.365 3c0-7.753-6.276-7.647-9.412-6.63l1.83 1.783c3.135-1.224 5.488 0 6.276.765-2.094-1.424-4.882-.93-6.011-.506l.782.764C14.983 9.341 16.53 12.96 16.706 15"/>
    <path fill="#000" d="M11.412 17.294v-3.312l1.112-.512v-.764l-1.7.764v2.295L10.43 15l.1-3-.1-.57c.53-.254 1.57-.507 2.353-.507 1.676 0 2.617 1.353 2.882 2.036-1.259 0-1.57 1.359-1.57 2.04z"/>
    <defs>
        <linearGradient id="AEGIS__a" x1="15.437" x2="8.562" y1="2.938" y2="21.063" gradientUnits="userSpaceOnUse">
            <stop stop-color="#9E7F42"/>
            <stop offset="1" stop-color="#C8AF6C"/>
        </linearGradient>
    </defs>
</svg>
